X: 131
T: Kuiwu de shengqi A pretty body (S. 555)
%%abc-version 2.0
%%abcx-abcm2ps-target-version 5.9.1 (29 Sep 2008)
%%abc-creator hum2abc beta
%%abcx-conversion-date 2013/10/02 07:44:27
%%abc-edited-by Helmut Schaffrath
%%humdrum-veritas 505053660
%%humdrum-veritas-data 3151411533
%%continueall 1
%%barnumbers 0
L: 1/16
M: 2/4
K: C
A2> G2 A2 C D [I:setbarnb 1]| 
E2> G2 E2 A,2 | 
A2> G2 A2 C D | 
E8 | 
A2> G2 A2 C D | 
E2> A2 G,2 A,2 | 
D D2 C G, A, C2 | 
A,8 |]  



